X: 29706
T: Now She's Purring
R: reel
M: 4/4
K: Gmajor
|:~G3A Bdgd|~B2BG AE~E2|BGAF GABd|1 egfa gedB:|2 egfa g4||
|:~g3a bgaf|gaba gfed|~B3A GABd|egfa gfed:|
~g3a bgaf|gbaf gfedBdAB GABd|egfa g4||

